!!!Genre:	Volekh
!!!Mode:	Minor
!!!Listening/dance:	dance
!!!:	*g:dor; *G:
!!!One_Mode:	no
**kern
*I"P1
*clefG2
*k[b-e-]
*g:
*M3/4
*>A
=1
2.g
=2
2.gg
=3
4gg
4ff
4ee-
=4
4dd
4cc
4b-
=5
4ff
4ee-
4dd
=6
2cc
(8b-L
8aJ)
=7
4b-
4cc
8ddL
8b-J
=8
4cc
4b-
(8aL
8ddJ)
=9
2.g
=10
2.gg
=11:|!
[2.g
=12
4g]
4r
*>B
4d
=13!|:
2g
4a
=14
2b-
4dd
=15
2a
4dd
=16
2g
4d
=17
2g
4a
=18
2b-
4cc
=19
2.dd
=20
2.dd
*>bM
*-
